img/SHOPPING CART.svg

﻿<svg version="1.1" xmlns="http://www.w3.org/2000/svg" xmlns:xlink="http://www.w3.org/1999/xlink" width="20" height="17"><defs/><g><path fill="rgb(255,255,255)" stroke="none" paint-order="stroke fill markers" fill-rule="evenodd" d=" M 18.725997924804688 4.662798166275024 C 18.725997924804688 4.662798166275024 18.727256774902344 4.663402318954468 18.727256774902344 4.663402318954468 C 18.727256774902344 4.663402318954468 16.252357482910156 10.163155198097229 16.252357482910156 10.163155198097229 C 16.252357482910156 10.163155198097229 16.252243041992188 10.163155198097229 16.252243041992188 10.163155198097229 C 16.13013458251953 10.434268712997437 15.866119384765625 10.62744653224945 15.554840087890625 10.647685647010803 C 15.554840087890625 10.647685647010803 15.554840087890625 10.647685647010803 15.554840087890625 10.647685647010803 C 15.554840087890625 10.647685647010803 8.427230834960938 11.122700691223145 8.427230834960938 11.122700691223145 C 8.427230834960938 11.122700691223145 8.8389892578125 12.299288034439087 8.8389892578125 12.299288034439087 C 8.8389892578125 12.299288034439087 16.60002899169922 12.299288034439087 16.60002899169922 12.299288034439087 C 17.511207580566406 12.299288034439087 18.249923706054688 13.038468837738037 18.249923706054688 13.949833154678345 C 18.249923706054688 14.861197471618652 17.511207580566406 15.599623084068298 16.60002899169922 15.599623084068298 C 15.688735961914062 15.599623084068298 14.949905395507812 14.861197471618652 14.949905395507812 13.949833154678345 C 14.949905395507812 13.949833154678345 7.249977111816406 13.949833154678345 7.249977111816406 13.949833154678345 C 7.249977111816406 14.861197471618652 6.511260986328125 15.599623084068298 5.599967956542969 15.599623084068298 C 4.6886749267578125 15.599623084068298 3.9499588012695312 14.861197471618652 3.9499588012695312 13.949833154678345 C 3.9499588012695312 13.038468837738037 4.6886749267578125 12.299288034439087 5.599967956542969 12.299288034439087 C 5.599967956542969 12.299288034439087 7.090904235839844 12.299288034439087 7.090904235839844 12.299288034439087 C 7.090904235839844 12.299288034439087 3.9147109985351562 3.2246127128601074 3.9147109985351562 3.2246127128601074 C 3.9147109985351562 3.2246127128601074 2.0249481201171875 3.2246127128601074 2.0249481201171875 3.2246127128601074 C 1.5693588256835938 3.2246127128601074 1.1999435424804688 2.8550223112106323 1.1999435424804688 2.3996422290802 C 1.1999435424804688 1.944262146949768 1.5693588256835938 1.574671745300293 2.0249481201171875 1.574671745300293 C 2.0249481201171875 1.574671745300293 4.499961853027344 1.574671745300293 4.499961853027344 1.574671745300293 C 4.8598785400390625 1.574671745300293 5.1629180908203125 1.8065153360366821 5.2755279541015625 2.128377676010132 C 5.2755279541015625 2.128377676010132 5.278617858886719 2.127169370651245 5.278617858886719 2.127169370651245 C 5.278617858886719 2.127169370651245 5.759040832519531 3.4999552965164185 5.759040832519531 3.4999552965164185 C 5.759040832519531 3.4999552965164185 17.97492218017578 3.4999552965164185 17.97492218017578 3.4999552965164185 C 18.430625915527344 3.4999552965164185 18.7999267578125 3.86894154548645 18.7999267578125 4.324925780296326 C 18.7999267578125 4.445303201675415 18.77257537841797 4.559034943580627 18.725997924804688 4.662798166275024 Z M 6.336509704589844 5.149745225906372 C 6.336509704589844 5.149745225906372 7.861663818359375 9.50689435005188 7.861663818359375 9.50689435005188 C 7.861663818359375 9.50689435005188 14.950935363769531 9.034144878387451 14.950935363769531 9.034144878387451 C 14.950935363769531 9.034144878387451 16.699020385742188 5.149745225906372 16.699020385742188 5.149745225906372 C 16.699020385742188 5.149745225906372 6.336509704589844 5.149745225906372 6.336509704589844 5.149745225906372 Z"/></g></svg>

<svg xmlns="http://www.w3.org/2000/svg" width="20" height="17"><path fill="#FFF" paint-order="stroke fill markers" fill-rule="evenodd" d="M18.726 4.663h.001l-2.475 5.5a.824.824 0 0 1-.697.485l-7.128.475.412 1.176H16.6a1.65 1.65 0 1 1-1.65 1.65h-7.7A1.65 1.65 0 1 1 5.6 12.3h1.49L3.916 3.225h-1.89a.825.825 0 0 1 0-1.65H4.5c.36 0 .663.232.776.553h.003l.48 1.372h12.216a.825.825 0 0 1 .751 1.163zm-12.39.487l1.526 4.357 7.089-.473 1.748-3.884H6.337z"/></svg>
